X:32
T:New Dale continued
S:John Moore's Book 3
Z:Transcribed by John Adams 05/2021  
%%VWML:Moore1-4495-p50-0
F:https://www.vwml.org/record/Moore3/4495/p50
M:none
L:1/8
K:Fmaj
V:1
d2|(dc) (cB)|(BA) (B/c/d/B/)|(AF) (GA)|B2d2|(dc)  (cB)|(BA) (G/A/B/c/)|(de)f2|e2c2|c3c|B B B B | AcB A|(B/A/B/c/d) (c/B/)|(AG)F c|c2B2|!fermata!A2||
V:2
z2|z4|z4|z4|z4|z4|z4|z4|z2A2|a a a a|g3 g|f3z|z2ze|f> f f f|(fe2)e|!fermata!f2||
V:3
f2|(fe) (ed)|(dc) (d/e/f/d/)|(cA) (Bc)|d2z2|z4|z4|z4|z2c2|f f e e | d3d|(cAB) c|d/(c/d/e/  f) e/d/|c>BA B|A2G2|!fermata!F2||
V:4 clef=bass
z2|z4|z4|z4|z2B,2|(B,A,) (A,G,)|(G,F,) (E,/F,/G,/A,/)|B,C D2|C2C2|A,3A,|G, G, G, G,|F,3z|z2zC,|F,>G,A, B,|C2C,2|!fermata! F,2||


%abc
%%abc-alias none
%%abc-creator ABCexplorer 1.6.1 [15/05/2021]

